Newaita/actions/24/edit-bomb.svg

<svg height="24" viewBox="0 0 24 24" width="24" xmlns="http://www.w3.org/2000/svg"><g fill="#424242"><path d="m15.242188 8.753906c-1.554688-1.554687-3.433594-2.179687-4.210938-1.402344l-.875.875c-2.160156-.386718-4.464844.257813-6.140625 1.933594-2.722656 2.71875-2.722656 7.101563 0 9.820313 2.722656 2.722656 7.101563 2.722656 9.824219 0 1.675781-1.675781 2.316406-3.980469 1.929687-6.140625l.875-.875c.777344-.777344.152344-2.65625-1.402343-4.210938zm-1.402344 1.40625c.777344.777344 1.089844 1.714844.699218 2.105469l-.992187.988281c.316406.804688.417969 1.671875.296875 2.511719v.007813c-.003906.027343-.007812.058593-.015625.085937v.003906c-.003906.03125-.007813.0625-.015625.09375v.003907c-.003906.027343-.011719.058593-.015625.089843-.003906.007813-.003906.011719-.003906.019531-.007813.023438-.011719.046876-.015625.074219-.003906.007813-.003906.015625-.007813.023438-.003906.023437-.011719.046875-.015625.066406 0 .011719-.003906.019531-.007812.03125-.003906.019531-.007813.039063-.015625.058594 0 .011719-.003907.023437-.007813.035156-.003906.019531-.011718.039063-.015625.058594-.003906.007812-.007812.019531-.011719.03125-.003906.019531-.007812.039062-.015624.058593-.003907.011719-.007813.019532-.007813.03125-.007813.019532-.015625.042969-.019531.0625-.003906.007813-.007813.019532-.011719.027344-.007813.023438-.011719.042969-.019531.0625-.003906.011719-.007813.019532-.011719.027344-.007813.027344-.019531.054688-.027344.078125 0 .003906-.003906.007813-.003906.011719-.011719.03125-.023437.058594-.035156.089844s-.023438.058593-.035157.089843c-.003906.003907-.007812.011719-.007812.019531-.011719.023438-.019531.042969-.03125.066407-.003906.007812-.007812.019531-.011719.027343-.007812.019532-.019531.039063-.027343.058594-.003907.011719-.007813.019532-.015626.03125-.007812.019532-.015624.035156-.023437.054688-.007813.011718-.011719.023437-.015625.03125-.011719.019531-.019531.035156-.027344.054687-.007812.011719-.011718.023438-.019531.035157-.007813.015624-.015625.03125-.027344.050781-.003906.011719-.011719.019531-.015625.03125-.011718.019531-.019531.035156-.03125.054687-.003906.007813-.011718.019532-.015625.03125-.011719.015625-.023437.035156-.035156.054688-.003906.007812-.011719.019531-.015625.027344-.011719.019531-.023438.039062-.035156.054687-.003906.011719-.011719.019531-.015625.027344-.015625.027343-.035157.054687-.050781.082031-.003907.003906-.007813.007812-.007813.011719-.015625.023437-.03125.046875-.046875.070312-.007812.007813-.011719.015625-.019531.023438-.011719.019531-.023438.035156-.035157.054687-.007812.011719-.015624.019532-.023437.03125-.011719.015625-.023437.03125-.035156.046875-.007813.011719-.015625.023438-.023438.035157-.011719.015624-.023437.027343-.035156.042968-.007813.011719-.019531.023438-.027344.035156-.011719.011719-.023437.027344-.035156.042969-.007813.011719-.019531.023438-.027344.035157-.011719.011718-.023437.027343-.035156.039062-.007813.011719-.019531.023438-.027344.035156-.011719.015625-.027343.03125-.039062.046875-.007813.007813-.015625.015625-.027344.027344-.011719.015625-.027344.03125-.039063.046875-.011718.007812-.019531.019531-.027343.027344-.015625.015625-.027344.03125-.042969.046875-.007812.007812-.015625.019531-.027344.027343-.023437.023438-.042968.046876-.070312.070313-.925782.925781-2.121094 1.410156-3.328125 1.453125-1.328125.050781-2.667969-.433594-3.6875-1.453125-1-1-1.488281-2.320313-1.457031-3.625.03125-1.230469.515624-2.449219 1.457031-3.390625.023437-.023438.046875-.046875.070312-.070312.011719-.007813.019531-.015626.03125-.027344l.042969-.042969c.011719-.007813.019531-.015625.03125-.023437.015625-.015626.027344-.027344.042969-.042969.011719-.007813.019531-.015625.03125-.027344.015625-.011719.027343-.023437.042969-.035156.011718-.011719.023437-.019531.035156-.03125.015625-.011719.027344-.023438.042968-.035157.011719-.007812.019532-.015624.03125-.027343.015626-.011719.03125-.023438.046876-.035157.011718-.007812.019531-.015624.03125-.023437.015624-.011719.03125-.023437.046874-.035156.007813-.007813.019532-.015625.03125-.023438.015626-.015625.03125-.027343.046876-.039062.011718-.003907.023437-.011719.03125-.019531.019531-.011719.035156-.027344.054687-.039063.007813-.003906.015625-.011719.027344-.015625.023437-.019531.046875-.035156.070312-.046875.003907-.003906.003907-.007813.007813-.007813.027344-.019531.054687-.035156.082031-.054687.007813-.003906.019531-.007813.027344-.015625.019531-.011719.035156-.023438.054687-.035156.011719-.003906.019532-.011719.03125-.015625.015625-.011719.035156-.023438.054688-.03125.007812-.007813.019531-.011719.03125-.019531.015625-.007813.03125-.019532.050781-.027344.011719-.007813.023437-.011719.035156-.019532.015625-.007812.03125-.019531.050781-.027343.011719-.003907.023438-.011719.03125-.015625.019532-.011719.035157-.019532.054688-.027344.011719-.007812.019531-.011719.03125-.015625.019531-.011719.035156-.019531.054688-.027344.011718-.003906.023437-.011719.035156-.015625.015625-.007812.035156-.015625.054687-.023437.007813-.007813.019531-.011719.03125-.015625.019531-.007813.042969-.019532.0625-.027344.007813-.003906.015625-.007812.023438-.011719.027343-.011719.058593-.023437.085937-.035156.03125-.011719.0625-.023437.09375-.035156 0 0 .003906 0 .007813-.003907.027343-.007812.050781-.019531.078125-.027343.007812-.003907.019531-.007813.027344-.007813.019531-.007812.042968-.015625.0625-.023437.011718-.003907.019531-.003907.027343-.007813.023438-.007812.042969-.015625.0625-.019531.011719-.003906.023438-.007813.03125-.011719.019531-.003906.039063-.011718.058594-.015625.011719-.003906.023437-.007812.035156-.011719.019531-.003906.039063-.007812.058594-.015624.007813 0 .019531-.003907.03125-.007813.019531-.003906.039063-.011719.0625-.015625.007813-.003906.019531-.003906.027344-.007812.023437-.003907.042969-.007813.066406-.015626.007813 0 .015625-.003906.027344-.003906.023437-.007812.046875-.011718.070312-.015625.007813 0 .015625-.003906.019531-.003906.03125-.007813.0625-.011719.09375-.019531.03125-.003906.0625-.011719.09375-.015625h.003907c.03125-.003907.058593-.007813.089843-.015625h.003907c.84375-.117188 1.710937-.019532 2.511719.296875l.992187-.992188c.386719-.386719 1.328125-.074219 2.105469.703125zm0 0"/><path d="m17.667969 3.902344c-.5.027344-.902344.167968-1.222657.421875-.636718.507812-.753906 1.296875-.816406 2.011719-.0625.714843-.074218 1.425781-.234375 1.910156-.164062.484375-.355469.75-1.082031.859375-.183594.023437-.339844.144531-.410156.316406-.070313.175781-.039063.371094.074218.515625.117188.144531.304688.214844.488282.1875 1.03125-.15625 1.660156-.824219 1.902344-1.550781.246093-.726563.230468-1.5.289062-2.148438.054688-.648437.175781-1.09375.429688-1.296875.253906-.199218.832031-.332031 2.128906.019532.175781.050781.371094.003906.503906-.125.132812-.132813.183594-.324219.136719-.503907-.050781-.175781-.191407-.316406-.371094-.363281-.714844-.195312-1.316406-.28125-1.816406-.253906zm0 0"/><path d="m20.03125 2.066406c-.078125.003906-.148438.039063-.195312.101563l-.515626.6875-.671874-.53125c-.183594-.144531-.445313.007812-.414063.238281l.125.851562-.851563.097657c-.234374.027343-.3125.324219-.125.464843l.6875.511719-.53125.675781c-.144531.179688.007813.445313.238282.410157l.847656-.121094.101562.851563c.027344.230468.324219.308593.460938.125l.515625-.6875.671875.53125c.183594.140624.449219-.011719.414062-.238282l-.121093-.851562.851562-.101563c.230469-.027343.308594-.320312.121094-.460937l-.683594-.511719.527344-.675781c.144531-.179688-.007813-.445313-.238281-.414063l-.847656.125-.101563-.851562c-.015625-.136719-.132813-.234375-.265625-.226563zm0 0"/></g></svg>

<?xml version="1.0" encoding="UTF-8"?>
<svg xmlns="http://www.w3.org/2000/svg" xmlns:xlink="http://www.w3.org/1999/xlink" width="24px" height="24px" viewBox="0 0 24 24" version="1.1">
<g id="surface1">
<path style=" stroke:none;fill-rule:nonzero;fill:rgb(25.882354%,25.882354%,25.882354%);fill-opacity:1;" d="M 15.242188 8.753906 C 13.6875 7.199219 11.808594 6.574219 11.03125 7.351562 L 10.15625 8.226562 C 7.996094 7.839844 5.691406 8.484375 4.015625 10.160156 C 1.292969 12.878906 1.292969 17.261719 4.015625 19.980469 C 6.738281 22.703125 11.117188 22.703125 13.839844 19.980469 C 15.515625 18.304688 16.15625 16 15.769531 13.839844 L 16.644531 12.964844 C 17.421875 12.1875 16.796875 10.308594 15.242188 8.753906 Z M 13.839844 10.160156 C 14.617188 10.9375 14.929688 11.875 14.539062 12.265625 L 13.546875 13.253906 C 13.863281 14.058594 13.964844 14.925781 13.84375 15.765625 C 13.84375 15.769531 13.84375 15.769531 13.84375 15.773438 C 13.839844 15.800781 13.835938 15.832031 13.828125 15.859375 C 13.828125 15.859375 13.828125 15.863281 13.828125 15.863281 C 13.824219 15.894531 13.820312 15.925781 13.8125 15.957031 C 13.8125 15.957031 13.8125 15.957031 13.8125 15.960938 C 13.808594 15.988281 13.800781 16.019531 13.796875 16.050781 C 13.792969 16.058594 13.792969 16.0625 13.792969 16.070312 C 13.785156 16.09375 13.78125 16.117188 13.777344 16.144531 C 13.773438 16.152344 13.773438 16.160156 13.769531 16.167969 C 13.765625 16.191406 13.757812 16.214844 13.753906 16.234375 C 13.753906 16.246094 13.75 16.253906 13.746094 16.265625 C 13.742188 16.285156 13.738281 16.304688 13.730469 16.324219 C 13.730469 16.335938 13.726562 16.347656 13.722656 16.359375 C 13.71875 16.378906 13.710938 16.398438 13.707031 16.417969 C 13.703125 16.425781 13.699219 16.4375 13.695312 16.449219 C 13.691406 16.46875 13.6875 16.488281 13.679688 16.507812 C 13.675781 16.519531 13.671875 16.527344 13.671875 16.539062 C 13.664062 16.558594 13.65625 16.582031 13.652344 16.601562 C 13.648438 16.609375 13.644531 16.621094 13.640625 16.628906 C 13.632812 16.652344 13.628906 16.671875 13.621094 16.691406 C 13.617188 16.703125 13.613281 16.710938 13.609375 16.71875 C 13.601562 16.746094 13.589844 16.773438 13.582031 16.796875 C 13.582031 16.800781 13.578125 16.804688 13.578125 16.808594 C 13.566406 16.839844 13.554688 16.867188 13.542969 16.898438 C 13.53125 16.929688 13.519531 16.957031 13.507812 16.988281 C 13.503906 16.992188 13.5 17 13.5 17.007812 C 13.488281 17.03125 13.480469 17.050781 13.46875 17.074219 C 13.464844 17.082031 13.460938 17.09375 13.457031 17.101562 C 13.449219 17.121094 13.4375 17.140625 13.429688 17.160156 C 13.425781 17.171875 13.421875 17.179688 13.414062 17.191406 C 13.40625 17.210938 13.398438 17.226562 13.390625 17.246094 C 13.382812 17.257812 13.378906 17.269531 13.375 17.277344 C 13.363281 17.296875 13.355469 17.3125 13.347656 17.332031 C 13.339844 17.34375 13.335938 17.355469 13.328125 17.367188 C 13.320312 17.382812 13.3125 17.398438 13.300781 17.417969 C 13.296875 17.429688 13.289062 17.4375 13.285156 17.449219 C 13.273438 17.46875 13.265625 17.484375 13.253906 17.503906 C 13.25 17.511719 13.242188 17.523438 13.238281 17.535156 C 13.226562 17.550781 13.214844 17.570312 13.203125 17.589844 C 13.199219 17.597656 13.191406 17.609375 13.1875 17.617188 C 13.175781 17.636719 13.164062 17.65625 13.152344 17.671875 C 13.148438 17.683594 13.140625 17.691406 13.136719 17.699219 C 13.121094 17.726562 13.101562 17.753906 13.085938 17.78125 C 13.082031 17.785156 13.078125 17.789062 13.078125 17.792969 C 13.0625 17.816406 13.046875 17.839844 13.03125 17.863281 C 13.023438 17.871094 13.019531 17.878906 13.011719 17.886719 C 13 17.90625 12.988281 17.921875 12.976562 17.941406 C 12.96875 17.953125 12.960938 17.960938 12.953125 17.972656 C 12.941406 17.988281 12.929688 18.003906 12.917969 18.019531 C 12.910156 18.03125 12.902344 18.042969 12.894531 18.054688 C 12.882812 18.070312 12.871094 18.082031 12.859375 18.097656 C 12.851562 18.109375 12.839844 18.121094 12.832031 18.132812 C 12.820312 18.144531 12.808594 18.160156 12.796875 18.175781 C 12.789062 18.1875 12.777344 18.199219 12.769531 18.210938 C 12.757812 18.222656 12.746094 18.238281 12.734375 18.25 C 12.726562 18.261719 12.714844 18.273438 12.707031 18.285156 C 12.695312 18.300781 12.679688 18.316406 12.667969 18.332031 C 12.660156 18.339844 12.652344 18.347656 12.640625 18.359375 C 12.628906 18.375 12.613281 18.390625 12.601562 18.40625 C 12.589844 18.414062 12.582031 18.425781 12.574219 18.433594 C 12.558594 18.449219 12.546875 18.464844 12.53125 18.480469 C 12.523438 18.488281 12.515625 18.5 12.503906 18.507812 C 12.480469 18.53125 12.460938 18.554688 12.433594 18.578125 C 11.507812 19.503906 10.3125 19.988281 9.105469 20.03125 C 7.777344 20.082031 6.4375 19.597656 5.417969 18.578125 C 4.417969 17.578125 3.929688 16.257812 3.960938 14.953125 C 3.992188 13.722656 4.476562 12.503906 5.417969 11.5625 C 5.441406 11.539062 5.464844 11.515625 5.488281 11.492188 C 5.5 11.484375 5.507812 11.476562 5.519531 11.464844 C 5.53125 11.453125 5.546875 11.4375 5.5625 11.421875 C 5.574219 11.414062 5.582031 11.40625 5.59375 11.398438 C 5.609375 11.382812 5.621094 11.371094 5.636719 11.355469 C 5.648438 11.347656 5.65625 11.339844 5.667969 11.328125 C 5.683594 11.316406 5.695312 11.304688 5.710938 11.292969 C 5.722656 11.28125 5.734375 11.273438 5.746094 11.261719 C 5.761719 11.25 5.773438 11.238281 5.789062 11.226562 C 5.800781 11.21875 5.808594 11.210938 5.820312 11.199219 C 5.835938 11.1875 5.851562 11.175781 5.867188 11.164062 C 5.878906 11.15625 5.886719 11.148438 5.898438 11.140625 C 5.914062 11.128906 5.929688 11.117188 5.945312 11.105469 C 5.953125 11.097656 5.964844 11.089844 5.976562 11.082031 C 5.992188 11.066406 6.007812 11.054688 6.023438 11.042969 C 6.035156 11.039062 6.046875 11.03125 6.054688 11.023438 C 6.074219 11.011719 6.089844 10.996094 6.109375 10.984375 C 6.117188 10.980469 6.125 10.972656 6.136719 10.96875 C 6.160156 10.949219 6.183594 10.933594 6.207031 10.921875 C 6.210938 10.917969 6.210938 10.914062 6.214844 10.914062 C 6.242188 10.894531 6.269531 10.878906 6.296875 10.859375 C 6.304688 10.855469 6.316406 10.851562 6.324219 10.84375 C 6.34375 10.832031 6.359375 10.820312 6.378906 10.808594 C 6.390625 10.804688 6.398438 10.796875 6.410156 10.792969 C 6.425781 10.78125 6.445312 10.769531 6.464844 10.761719 C 6.472656 10.753906 6.484375 10.75 6.496094 10.742188 C 6.511719 10.734375 6.527344 10.722656 6.546875 10.714844 C 6.558594 10.707031 6.570312 10.703125 6.582031 10.695312 C 6.597656 10.6875 6.613281 10.675781 6.632812 10.667969 C 6.644531 10.664062 6.65625 10.65625 6.664062 10.652344 C 6.683594 10.640625 6.699219 10.632812 6.71875 10.625 C 6.730469 10.617188 6.738281 10.613281 6.75 10.609375 C 6.769531 10.597656 6.785156 10.589844 6.804688 10.582031 C 6.816406 10.578125 6.828125 10.570312 6.839844 10.566406 C 6.855469 10.558594 6.875 10.550781 6.894531 10.542969 C 6.902344 10.535156 6.914062 10.53125 6.925781 10.527344 C 6.945312 10.519531 6.96875 10.507812 6.988281 10.5 C 6.996094 10.496094 7.003906 10.492188 7.011719 10.488281 C 7.039062 10.476562 7.070312 10.464844 7.097656 10.453125 C 7.128906 10.441406 7.160156 10.429688 7.191406 10.417969 C 7.191406 10.417969 7.195312 10.417969 7.199219 10.414062 C 7.226562 10.40625 7.25 10.394531 7.277344 10.386719 C 7.285156 10.382812 7.296875 10.378906 7.304688 10.378906 C 7.324219 10.371094 7.347656 10.363281 7.367188 10.355469 C 7.378906 10.351562 7.386719 10.351562 7.394531 10.347656 C 7.417969 10.339844 7.4375 10.332031 7.457031 10.328125 C 7.46875 10.324219 7.480469 10.320312 7.488281 10.316406 C 7.507812 10.3125 7.527344 10.304688 7.546875 10.300781 C 7.558594 10.296875 7.570312 10.292969 7.582031 10.289062 C 7.601562 10.285156 7.621094 10.28125 7.640625 10.273438 C 7.648438 10.273438 7.660156 10.269531 7.671875 10.265625 C 7.691406 10.261719 7.710938 10.253906 7.734375 10.25 C 7.742188 10.246094 7.753906 10.246094 7.761719 10.242188 C 7.785156 10.238281 7.804688 10.234375 7.828125 10.226562 C 7.835938 10.226562 7.84375 10.222656 7.855469 10.222656 C 7.878906 10.214844 7.902344 10.210938 7.925781 10.207031 C 7.933594 10.207031 7.941406 10.203125 7.945312 10.203125 C 7.976562 10.195312 8.007812 10.191406 8.039062 10.183594 C 8.070312 10.179688 8.101562 10.171875 8.132812 10.167969 C 8.136719 10.167969 8.136719 10.167969 8.136719 10.167969 C 8.167969 10.164062 8.195312 10.160156 8.226562 10.152344 C 8.226562 10.152344 8.230469 10.152344 8.230469 10.152344 C 9.074219 10.035156 9.941406 10.132812 10.742188 10.449219 L 11.734375 9.457031 C 12.121094 9.070312 13.0625 9.382812 13.839844 10.160156 Z M 13.839844 10.160156 "/>
<path style=" stroke:none;fill-rule:nonzero;fill:rgb(25.882354%,25.882354%,25.882354%);fill-opacity:1;" d="M 17.667969 3.902344 C 17.167969 3.929688 16.765625 4.070312 16.445312 4.324219 C 15.808594 4.832031 15.691406 5.621094 15.628906 6.335938 C 15.566406 7.050781 15.554688 7.761719 15.394531 8.246094 C 15.230469 8.730469 15.039062 8.996094 14.3125 9.105469 C 14.128906 9.128906 13.972656 9.25 13.902344 9.421875 C 13.832031 9.597656 13.863281 9.792969 13.976562 9.9375 C 14.09375 10.082031 14.28125 10.152344 14.464844 10.125 C 15.496094 9.96875 16.125 9.300781 16.367188 8.574219 C 16.613281 7.847656 16.597656 7.074219 16.65625 6.425781 C 16.710938 5.777344 16.832031 5.332031 17.085938 5.128906 C 17.339844 4.929688 17.917969 4.796875 19.214844 5.148438 C 19.390625 5.199219 19.585938 5.152344 19.71875 5.023438 C 19.851562 4.890625 19.902344 4.699219 19.855469 4.519531 C 19.804688 4.34375 19.664062 4.203125 19.484375 4.15625 C 18.769531 3.960938 18.167969 3.875 17.667969 3.902344 Z M 17.667969 3.902344 "/>
<path style=" stroke:none;fill-rule:nonzero;fill:rgb(25.882354%,25.882354%,25.882354%);fill-opacity:1;" d="M 20.03125 2.066406 C 19.953125 2.070312 19.882812 2.105469 19.835938 2.167969 L 19.320312 2.855469 L 18.648438 2.324219 C 18.464844 2.179688 18.203125 2.332031 18.234375 2.5625 L 18.359375 3.414062 L 17.507812 3.511719 C 17.273438 3.539062 17.195312 3.835938 17.382812 3.976562 L 18.070312 4.488281 L 17.539062 5.164062 C 17.394531 5.34375 17.546875 5.609375 17.777344 5.574219 L 18.625 5.453125 L 18.726562 6.304688 C 18.753906 6.535156 19.050781 6.613281 19.1875 6.429688 L 19.703125 5.742188 L 20.375 6.273438 C 20.558594 6.414062 20.824219 6.261719 20.789062 6.035156 L 20.667969 5.183594 L 21.519531 5.082031 C 21.75 5.054688 21.828125 4.761719 21.640625 4.621094 L 20.957031 4.109375 L 21.484375 3.433594 C 21.628906 3.253906 21.476562 2.988281 21.246094 3.019531 L 20.398438 3.144531 L 20.296875 2.292969 C 20.28125 2.15625 20.164062 2.058594 20.03125 2.066406 Z M 20.03125 2.066406 "/>
</g>
</svg>
